Origami/22x22/apps/cisco-anyconnect.svg

<svg width="22" height="22" version="1" xmlns="http://www.w3.org/2000/svg">
 <path d="m10.999975 1.0000512c-5.5399861 0-9.999975 4.4599889-9.999975 9.9999748 0 5.539986 4.4599889 9.999975 9.999975 9.999975 5.539986 0 9.999975-4.459989 9.999975-9.999975 0-5.5399859-4.459989-9.9999748-9.999975-9.9999748z" style="fill:#cccccc"/>
 <path d="M 7.9999825,4.0000437 A 9.999975,9.999975 0 0 0 2.576168,5.6103912 C 1.5821895,7.1648718 1,9.010357 1,11.000026 c 0,0.558783 0.047487,1.106305 0.1347653,1.639645 a 6.9999825,6.9999825 0 0 1 6.8652172,-5.6396348 6.9999825,6.9999825 0 0 1 6.9999825,6.9999828 6.9999825,6.9999825 0 0 1 -5.65233,6.863264 c 0.537346,0.08864 1.089118,0.136718 1.65234,0.136718 1.99785,0 3.85074,-0.586367 5.409166,-1.587886 A 9.999975,9.999975 0 0 0 17.999958,14.000019 9.999975,9.999975 0 0 0 7.9999825,4.0000437 Z" style="fill:#318bcf"/>
 <path d="m10.999975 1.50005c-0.04755 0-0.09421 0.00325-0.141601 0.00391a9.999975 9.999975 0 0 0 -2.8583915 6.9960725 9.999975 9.999975 0 0 0 9.6269285 9.9863035c1.03642-0.917424 1.878626-2.044453 2.461908-3.320305a6.9999825 6.9999825 0 0 1 -2.088861 0.333984 6.9999825 6.9999825 0 0 1 -6.999983 -6.9999825 6.9999825 6.9999825 0 0 1 3.832021 -6.2411953c-1.179563-0.4872976-2.472396-0.7587872-3.832021-0.7587872z" style="opacity:.2"/>
 <path d="m10.999975 1.0000512c-0.04755 0-0.09421 0.00325-0.141601 0.00391a9.999975 9.999975 0 0 0 -2.8583915 6.9960776 9.999975 9.999975 0 0 0 9.9999755 9.9999752 9.999975 9.999975 0 0 0 0.154296 -0.0078c0.940863-0.962702 1.682241-2.11686 2.173823-3.398429a6.9999825 6.9999825 0 0 1 -2.328119 0.406231 6.9999825 6.9999825 0 0 1 -6.999983 -6.9999822 6.9999825 6.9999825 0 0 1 3.832021 -6.2411954c-1.179563-0.4872976-2.472396-0.7587872-3.832021-0.7587872z" style="fill:#7bc450"/>
 <path d="m10.999975 1.0000512c5.534986 0 9.990975 4.4599889 9.990975 9.9999748 0 0.08394-4e-3 0.16657-0.0058 0.25-0.132-5.4229868-4.533989-9.749976-9.984975-9.749976-5.4509864 0-9.8529754 4.3269892-9.984975 9.749976-2e-3 -0.08343-0.00584-0.166065-0.00584-0.25 0-5.5399859 4.4559388-9.9999748 9.990974-9.9999748z" style="fill:#ffffff;opacity:.2"/>
 <path d="m1.0059 11.250026c-0.00205 0.083499-0.00585 0.165999-0.00585 0.249999 0 5.539986 4.4599888 9.999975 9.999975 9.999975 5.539986 0 9.999975-4.459989 9.999975-9.999975 0-0.084-4e-3 -0.1665-6e-3 -0.249999-0.132 5.422986-4.537989 9.749975-9.993975 9.749975-5.4559864 0-9.8619753-4.326989-9.993975-9.749975z" style="opacity:.2"/>
</svg>

<svg xmlns="http://www.w3.org/2000/svg" width="22" height="22" version="1">
 <path style="fill:#cccccc" d="M 10.999975,1.0000512 C 5.4599889,1.0000512 1,5.4600401 1,11.000026 c 0,5.539986 4.4599889,9.999975 9.999975,9.999975 5.539986,0 9.999975,-4.459989 9.999975,-9.999975 0,-5.5399859 -4.459989,-9.9999748 -9.999975,-9.9999748 z"/>
 <path style="fill:#318bcf" d="M 7.9999825,4.0000437 A 9.999975,9.999975 0 0 0 2.576168,5.6103912 C 1.5821895,7.1648718 1,9.010357 1,11.000026 c 0,0.558783 0.047487,1.106305 0.1347653,1.639645 a 6.9999825,6.9999825 0 0 1 6.8652172,-5.6396348 6.9999825,6.9999825 0 0 1 6.9999825,6.9999828 6.9999825,6.9999825 0 0 1 -5.65233,6.863264 c 0.537346,0.08864 1.089118,0.136718 1.65234,0.136718 1.99785,0 3.85074,-0.586367 5.409166,-1.587886 A 9.999975,9.999975 0 0 0 17.999958,14.000019 9.999975,9.999975 0 0 0 7.9999825,4.0000437 Z"/>
 <path style="opacity:0.2" d="m 10.999975,1.50005 c -0.04755,0 -0.09421,0.00325 -0.141601,0.00391 A 9.999975,9.999975 0 0 0 7.9999825,8.5000325 9.999975,9.999975 0 0 0 17.626911,18.486336 c 1.03642,-0.917424 1.878626,-2.044453 2.461908,-3.320305 A 6.9999825,6.9999825 0 0 1 17.999958,15.500015 6.9999825,6.9999825 0 0 1 10.999975,8.5000325 6.9999825,6.9999825 0 0 1 14.831996,2.2588372 C 13.652433,1.7715396 12.3596,1.50005 10.999975,1.50005 Z"/>
 <path style="fill:#7bc450" d="m 10.999975,1.0000512 c -0.04755,0 -0.09421,0.00325 -0.141601,0.00391 a 9.999975,9.999975 0 0 0 -2.8583915,6.9960776 9.999975,9.999975 0 0 0 9.9999755,9.9999752 9.999975,9.999975 0 0 0 0.154296,-0.0078 c 0.940863,-0.962702 1.682241,-2.11686 2.173823,-3.398429 A 6.9999825,6.9999825 0 0 1 17.999958,15.000016 6.9999825,6.9999825 0 0 1 10.999975,8.0000338 6.9999825,6.9999825 0 0 1 14.831996,1.7588384 C 13.652433,1.2715408 12.3596,1.0000512 10.999975,1.0000512 Z"/>
 <path style="opacity:0.2;fill:#ffffff" d="m 10.999975,1.0000512 c 5.534986,0 9.990975,4.4599889 9.990975,9.9999748 0,0.08394 -0.004,0.16657 -0.0058,0.25 -0.132,-5.4229868 -4.533989,-9.749976 -9.984975,-9.749976 -5.4509864,0 -9.8529754,4.3269892 -9.984975,9.749976 -0.002,-0.08343 -0.00584,-0.166065 -0.00584,-0.25 0,-5.5399859 4.4559388,-9.9999748 9.990974,-9.9999748 z"/>
 <path style="opacity:0.2" d="M 1.0059,11.250026 C 1.00385,11.333525 1.00005,11.416025 1.00005,11.500025 1.00005,17.040011 5.4600388,21.5 11.000025,21.5 16.540011,21.5 21,17.040011 21,11.500025 c 0,-0.084 -0.004,-0.1665 -0.006,-0.249999 -0.132,5.422986 -4.537989,9.749975 -9.993975,9.749975 -5.4559864,0 -9.8619753,-4.326989 -9.993975,-9.749975 z"/>
</svg>
